X: 575
T: Yidao wan
L: 1/8
M: 2/4
K: A
A B/ B/ A B [I:setbarnb 1]| 
c B/ B/A2 | 
A c/ c/ B c | 
G FE2 | 
E C E F | 
A FA2 | 
C B,C2 | 
E A F A | 
E B, C E | 
C B,A,2 |]

@@@ Tune index: 9449
